svgs/regular/battery-exclamation.svg

<svg xmlns="http://www.w3.org/2000/svg" viewBox="0 0 576 512"><!--! Font Awesome Pro 6.3.0 by @fontawesome - https://fontawesome.com License - https://fontawesome.com/license (Commercial License) Copyright 2023 Fonticons, Inc. --><path d="M208 96v48H80c-17.7 0-32 14.3-32 32V336c0 17.7 14.3 32 32 32H193.6c-1 5.2-1.6 10.5-1.6 16c0 11.4 2.4 22.2 6.7 32H80c-44.2 0-80-35.8-80-80V176c0-44.2 35.8-80 80-80H208zM464 416H345.3c4.3-9.8 6.7-20.6 6.7-32c0-5.5-.6-10.8-1.6-16H464c17.7 0 32-14.3 32-32V176c0-17.7-14.3-32-32-32H336V96H464c44.2 0 80 35.8 80 80v16c17.7 0 32 14.3 32 32v64c0 17.7-14.3 32-32 32v16c0 44.2-35.8 80-80 80zM272 96c13.3 0 24 10.7 24 24V296c0 13.3-10.7 24-24 24s-24-10.7-24-24V120c0-13.3 10.7-24 24-24zM240 384a32 32 0 1 1 64 0 32 32 0 1 1 -64 0z"/></svg>

<svg xmlns="http://www.w3.org/2000/svg" viewBox="0 0 576 512"><!--! Font Awesome Pro 6.2.0 by @fontawesome - https://fontawesome.com License - https://fontawesome.com/license (Commercial License) Copyright 2022 Fonticons, Inc. --><path d="M80 96H208V144H80C62.33 144 48 158.3 48 176V336C48 353.7 62.33 368 80 368H193.6C192.6 373.2 192 378.5 192 384C192 395.4 194.4 406.2 198.7 416H80C35.82 416 0 380.2 0 336V176C0 131.8 35.82 96 80 96V96zM352 384C352 378.5 351.4 373.2 350.4 368H464C481.7 368 496 353.7 496 336V176C496 158.3 481.7 144 464 144H336V96H464C508.2 96 544 131.8 544 176V192C561.7 192 576 206.3 576 224V288C576 305.7 561.7 320 544 320V336C544 380.2 508.2 416 464 416H345.3C349.6 406.2 352 395.4 352 384zM304 384C304 401.7 289.7 416 272 416C254.3 416 240 401.7 240 384C240 366.3 254.3 352 272 352C289.7 352 304 366.3 304 384zM296 296C296 309.3 285.3 320 272 320C258.7 320 248 309.3 248 296V120C248 106.7 258.7 96 272 96C285.3 96 296 106.7 296 120V296z"/></svg>
